source/manual/Azure Management Groups_COLOR.svg

<svg viewBox="0 0 50 50" class="" role="presentation" focusable="false" xmlns:svg="http://www.w3.org/2000/svg" xmlns:xlink="http://www.w3.org/1999/xlink" id="FxSymbol0-03c"><g><title></title><title>ManagementGroups</title><path d="M35 21.4l-.288.692-8.944-10.732L25 12l-.768-.64-8.944 10.732L15 21.4 9.077 35.615l1.846.77L15 26.6l4.077 9.785 1.846-.77-4.767-11.44L25 13.562l8.844 10.613-4.767 11.44 1.846.77L35 26.6l4.077 9.785 1.846-.77L35 21.4z" class="msportalfx-svg-c14" fill="#7fba00"></path><circle cx="40" cy="36" r="3" class="msportalfx-svg-c16" fill="#3999c6"></circle><circle cx="30" cy="36" r="3" class="msportalfx-svg-c16" fill="#3999c6"></circle><circle cx="25" cy="12" r="5" class="msportalfx-svg-c17" fill="#804998"></circle><circle cx="15" cy="24" r="4" class="msportalfx-svg-c19" fill="#0072c6"></circle><circle cx="35" cy="24" r="4" class="msportalfx-svg-c19" fill="#0072c6"></circle><circle cx="20" cy="36" r="3" class="msportalfx-svg-c16" fill="#3999c6"></circle><circle cx="10" cy="36" r="3" class="msportalfx-svg-c16" fill="#3999c6"></circle><path d="M9.5 45.4a1.854 1.854 0 0 1-.7-.2l-6.8-4a4.125 4.125 0 0 1-2-3.4V12.6a3.994 3.994 0 0 1 2-3.4l6.8-4a1.458 1.458 0 0 1 1.5 2.5l-6.8 4a1.346 1.346 0 0 0-.5.9v25.2a1.346 1.346 0 0 0 .5.9l6.8 4a1.456 1.456 0 0 1 .5 2 1.709 1.709 0 0 1-1.3.7zM40.5 5a1.854 1.854 0 0 1 .7.2l6.8 4a4.125 4.125 0 0 1 2 3.4v25.2a3.994 3.994 0 0 1-2 3.4l-6.8 4a1.458 1.458 0 0 1-1.5-2.5l6.8-4a1.346 1.346 0 0 0 .5-.9V12.6a1.346 1.346 0 0 0-.5-.9l-6.8-4a1.456 1.456 0 0 1-.5-2 1.889 1.889 0 0 1 1.3-.7z" class="msportalfx-svg-c04" fill="#7a7a7a"></path></g></svg>

<?xml version="1.0" encoding="UTF-8" standalone="no"?>
<svg
   xmlns:dc="http://purl.org/dc/elements/1.1/"
   xmlns:cc="http://creativecommons.org/ns#"
   xmlns:rdf="http://www.w3.org/1999/02/22-rdf-syntax-ns#"
   xmlns:svg="http://www.w3.org/2000/svg"
   xmlns="http://www.w3.org/2000/svg"
   xmlns:sodipodi="http://sodipodi.sourceforge.net/DTD/sodipodi-0.dtd"
   xmlns:inkscape="http://www.inkscape.org/namespaces/inkscape"
   viewBox="0 0 50 40.400002"
   class=""
   role="presentation"
   focusable="false"
   id="FxSymbol0-03c"
   version="1.1"
   sodipodi:docname="Azure Management Groups_COLOR.svg"
   width="50"
   height="40.400002"
   inkscape:version="0.92.2 (5c3e80d, 2017-08-06)">
  <metadata
     id="metadata31">
    <rdf:RDF>
      <cc:Work
         rdf:about="">
        <dc:format>image/svg+xml</dc:format>
        <dc:type
           rdf:resource="http://purl.org/dc/dcmitype/StillImage" />
      </cc:Work>
    </rdf:RDF>
  </metadata>
  <defs
     id="defs29" />
  <sodipodi:namedview
     pagecolor="#ffffff"
     bordercolor="#666666"
     borderopacity="1"
     objecttolerance="10"
     gridtolerance="10"
     guidetolerance="10"
     inkscape:pageopacity="0"
     inkscape:pageshadow="2"
     inkscape:window-width="640"
     inkscape:window-height="480"
     id="namedview27"
     showgrid="false"
     inkscape:zoom="4.72"
     inkscape:cx="25"
     inkscape:cy="20.4"
     inkscape:window-x="0"
     inkscape:window-y="0"
     inkscape:window-maximized="0"
     inkscape:current-layer="FxSymbol0-03c" />
  <g
     id="g24"
     transform="translate(0,-5)">
    <title
       id="title2" />
    <title
       id="title4">ManagementGroups</title>
    <path
       d="M 35,21.4 34.712,22.092 25.768,11.36 25,12 24.232,11.36 15.288,22.092 15,21.4 9.077,35.615 10.923,36.385 15,26.6 l 4.077,9.785 1.846,-0.77 -4.767,-11.44 8.844,-10.613 8.844,10.613 -4.767,11.44 1.846,0.77 L 35,26.6 l 4.077,9.785 1.846,-0.77 z"
       class="msportalfx-svg-c14"
       id="path6"
       inkscape:connector-curvature="0"
       style="fill:#7fba00" />
    <circle
       cx="40"
       cy="36"
       r="3"
       class="msportalfx-svg-c16"
       id="circle8"
       style="fill:#3999c6" />
    <circle
       cx="30"
       cy="36"
       r="3"
       class="msportalfx-svg-c16"
       id="circle10"
       style="fill:#3999c6" />
    <circle
       cx="25"
       cy="12"
       r="5"
       class="msportalfx-svg-c17"
       id="circle12"
       style="fill:#804998" />
    <circle
       cx="15"
       cy="24"
       r="4"
       class="msportalfx-svg-c19"
       id="circle14"
       style="fill:#0072c6" />
    <circle
       cx="35"
       cy="24"
       r="4"
       class="msportalfx-svg-c19"
       id="circle16"
       style="fill:#0072c6" />
    <circle
       cx="20"
       cy="36"
       r="3"
       class="msportalfx-svg-c16"
       id="circle18"
       style="fill:#3999c6" />
    <circle
       cx="10"
       cy="36"
       r="3"
       class="msportalfx-svg-c16"
       id="circle20"
       style="fill:#3999c6" />
    <path
       d="M 9.5,45.4 A 1.854,1.854 0 0 1 8.8,45.2 L 2,41.2 A 4.125,4.125 0 0 1 0,37.8 V 12.6 A 3.994,3.994 0 0 1 2,9.2 l 6.8,-4 a 1.458,1.458 0 0 1 1.5,2.5 l -6.8,4 A 1.346,1.346 0 0 0 3,12.6 v 25.2 a 1.346,1.346 0 0 0 0.5,0.9 l 6.8,4 a 1.456,1.456 0 0 1 0.5,2 1.709,1.709 0 0 1 -1.3,0.7 z M 40.5,5 a 1.854,1.854 0 0 1 0.7,0.2 l 6.8,4 a 4.125,4.125 0 0 1 2,3.4 v 25.2 a 3.994,3.994 0 0 1 -2,3.4 l -6.8,4 a 1.458,1.458 0 0 1 -1.5,-2.5 l 6.8,-4 A 1.346,1.346 0 0 0 47,37.8 V 12.6 a 1.346,1.346 0 0 0 -0.5,-0.9 l -6.8,-4 A 1.456,1.456 0 0 1 39.2,5.7 1.889,1.889 0 0 1 40.5,5 Z"
       class="msportalfx-svg-c04"
       id="path22"
       inkscape:connector-curvature="0"
       style="fill:#7a7a7a" />
  </g>
</svg>
